X: 1268
T: The Swallow's Tail
M:C|
L:1/8
R:Reel
B:O'Neill's 1268
N:Collected by F. O'Neill
Z:Transcribed by Trish O'Neil
K:A
(gf)|eA (3cBA eAcA|cdef gedB|=G2BG dGBG|cdef=g2fg|
eA (3cBA eAcA|cdef =g2fg|af=ge dB^GB|AcBGA2||
(cd)|eaag abag|e^def gedB|=G2BG dGBG|cdef =g2f^g|
eaag abag|e^def=g2f^g|af=ge dB^GB|AcBGA2||


